flaticon/household/desk-2.svg

<svg xmlns="http://www.w3.org/2000/svg" width="32" height="32" viewBox="0 0 24 24">
    <path d="M 23.601562 11.199219 L 23.199219 11.199219 L 23.199219 7.601562 L 20 7.601562 L 20 11.199219 L 13.199219 11.199219 L 13.199219 10 L 18.261719 10 C 18.78125 10 19.199219 9.578125 19.199219 9.0625 L 19.199219 0.9375 C 19.199219 0.421875 18.78125 0 18.261719 0 L 5.738281 0 C 5.21875 0 4.800781 0.421875 4.800781 0.9375 L 4.800781 9.0625 C 4.800781 9.578125 5.21875 10 5.738281 10 L 10.800781 10 L 10.800781 11.199219 L 0.398438 11.199219 C 0.179688 11.199219 0 11.378906 0 11.601562 L 0 13.199219 C 0 13.421875 0.179688 13.601562 0.398438 13.601562 L 0.800781 13.601562 L 0.800781 23.601562 C 0.800781 23.820312 0.980469 24 1.199219 24 L 2.207031 24 C 2.414062 24 2.589844 23.835938 2.605469 23.625 L 3.273438 13.601562 L 20.726562 13.601562 L 21.394531 23.625 C 21.410156 23.835938 21.585938 24 21.792969 24 L 22.800781 24 C 23.019531 24 23.199219 23.820312 23.199219 23.601562 L 23.199219 13.601562 L 23.601562 13.601562 C 23.820312 13.601562 24 13.421875 24 13.199219 L 24 11.601562 C 24 11.378906 23.820312 11.199219 23.601562 11.199219 Z M 22 8.398438 L 22.398438 8.398438 L 22.398438 11.199219 L 22 11.199219 Z M 20.800781 8.398438 L 21.199219 8.398438 L 21.199219 11.199219 L 20.800781 11.199219 Z M 5.601562 0.9375 C 5.601562 0.859375 5.660156 0.800781 5.738281 0.800781 L 18.261719 0.800781 C 18.339844 0.800781 18.398438 0.859375 18.398438 0.9375 L 18.398438 7.601562 L 5.601562 7.601562 Z M 5.738281 9.199219 C 5.660156 9.199219 5.601562 9.140625 5.601562 9.0625 L 5.601562 8.398438 L 18.398438 8.398438 L 18.398438 9.0625 C 18.398438 9.140625 18.339844 9.199219 18.261719 9.199219 Z M 11.601562 10 L 12.398438 10 L 12.398438 11.199219 L 11.601562 11.199219 Z M 23.199219 12.800781 L 22.800781 12.800781 C 22.578125 12.800781 22.398438 12.980469 22.398438 13.199219 L 22.398438 23.199219 L 22.167969 23.199219 L 21.5 13.171875 C 21.488281 12.964844 21.3125 12.800781 21.101562 12.800781 L 2.898438 12.800781 C 2.6875 12.800781 2.511719 12.964844 2.5 13.171875 L 1.832031 23.199219 L 1.601562 23.199219 L 1.601562 13.199219 C 1.601562 12.980469 1.421875 12.800781 1.199219 12.800781 L 0.800781 12.800781 L 0.800781 12 L 23.199219 12 Z M 23.199219 12.800781"/>
</svg>

<svg xmlns="http://www.w3.org/2000/svg" width="32" height="32" viewBox="0 0 24 24">
    <path d="M23.602 11.2h-.403V7.601H20v3.597h-6.8V10h5.062c.52 0 .937-.422.937-.938V.938A.938.938 0 0 0 18.262 0H5.738a.938.938 0 0 0-.937.938v8.124c0 .516.418.938.937.938h5.063v1.2H.398a.401.401 0 0 0-.398.402v1.597c0 .223.18.403.398.403h.403v10a.4.4 0 0 0 .398.398h1.008a.404.404 0 0 0 .398-.375l.668-10.023h17.454l.668 10.023c.015.21.19.375.398.375h1.008a.4.4 0 0 0 .398-.398v-10h.403c.218 0 .398-.18.398-.403v-1.597a.401.401 0 0 0-.398-.403zM22 8.397h.398V11.2H22zm-1.2 0h.4V11.2h-.4zM5.603.938c0-.079.058-.137.136-.137h12.524c.078 0 .136.058.136.136v6.665H5.602zm.136 8.261a.134.134 0 0 1-.136-.136v-.665h12.796v.665a.134.134 0 0 1-.136.136zm5.864.801h.796v1.2h-.796zm11.597 2.8h-.398a.401.401 0 0 0-.403.4v10h-.23L21.5 13.171a.398.398 0 0 0-.398-.371H2.898a.398.398 0 0 0-.398.37L1.832 23.2h-.23v-10a.401.401 0 0 0-.403-.398H.801V12h22.398zm0 0"/>
</svg>
